X: 1
T: Reel des Menteries
C: Trad. Qu\'ebec
R: reel
M: C|
L: 1/8
K: D
|:"D"A,DDA, [D3A,3]D | "A"CDEF GECE |"D"A,DDA, [D3A,3]D | "Em7"CDEF "A"GECE|
"D"A,DDA, [D3A,3]D | "A"CDEF GECE |"D"A,DFA dAFD | "A"EDCE "D"D2[D2A,2] :|
"D"d2Ad dfed | "A"cABc BAFA | "D"dcBA "D#dim"FAD2|"Em7"EDCD "A"EABc|
"D"d2Ad dfed | "A"cABc BAFA | "D"dcBA FAD2|"A"EDCE "D"D2[D2A,2] |
"D"d2Ad dfed | "A"cABc BAFA | "D"dcBA "D#dim"FAD2|"Em7"CDEF "A"GABc|
"D"d2Ad dfed | "A"cABc BAFA | "D"dcBA FAD2|"A"EDCE "D"D2[D2A,2] |]


#include "RightHeader.h"
% %footer 04/20/17 For use only by Roaring Jelly members
% %text Set 131 NEFFA 2017 Continued
$SmallLMargin
$SmallRMargin
% %scale .8
